X: 23708
T: Lisheen, The
R: polka
M: 2/4
K: Gmajor
B/|:dg BB/A/|GA Bd|f2 e/f/g/e/|dB B>c|
dg BB/A/|GA Bd|fa ef|1 g2 ge:|2 g2 g2||
|:a2 f>e|de f2|fa e/f/g/e/|dB B>c|
dg BB/A/|GA Bd|fa ef|1 g2 g2:|2 g2 ge||

